win-linux/res/icons/title/close_kde_hover_light.svg

<?xml version="1.0" encoding="UTF-8" standalone="no"?>
<svg
   width="16"
   height="16"
   viewBox="0 0 16 16"
   fill="none"
   version="1.1"
   id="svg1"
   sodipodi:docname="close_kde_hover_light.svg"
   inkscape:version="1.3 (0e150ed6c4, 2023-07-21)"
   xmlns:inkscape="http://www.inkscape.org/namespaces/inkscape"
   xmlns:sodipodi="http://sodipodi.sourceforge.net/DTD/sodipodi-0.dtd"
   xmlns="http://www.w3.org/2000/svg"
   xmlns:svg="http://www.w3.org/2000/svg">
  <defs
     id="defs1" />
  <sodipodi:namedview
     id="namedview1"
     pagecolor="#ffffff"
     bordercolor="#666666"
     borderopacity="1.0"
     inkscape:showpageshadow="2"
     inkscape:pageopacity="0.0"
     inkscape:pagecheckerboard="0"
     inkscape:deskcolor="#d1d1d1"
     inkscape:zoom="17.964932"
     inkscape:cx="0.38964801"
     inkscape:cy="2.3100561"
     inkscape:window-width="1920"
     inkscape:window-height="1017"
     inkscape:window-x="0"
     inkscape:window-y="0"
     inkscape:window-maximized="1"
     inkscape:current-layer="svg1" />
  <path
     style="fill:#ff98a2;fill-opacity:1;fill-rule:evenodd;stroke:none;stroke-width:3.42689;stroke-linecap:round;stroke-linejoin:round;stroke-miterlimit:0;paint-order:markers stroke fill"
     id="path2"
     sodipodi:type="arc"
     sodipodi:cx="8"
     sodipodi:cy="8"
     sodipodi:rx="8"
     sodipodi:ry="8"
     sodipodi:start="0"
     sodipodi:end="6.2803127"
     sodipodi:open="true"
     sodipodi:arc-type="arc"
     d="M 16,8 A 8,8 0 0 1 8.0057452,15.999998 8,8 0 0 1 8.2518706e-6,8.0114904 8,8 0 0 1 7.9827644,1.8566705e-5 8,8 0 0 1 15.999967,7.9770192" />
  <path
     d="M 8,7.456904 11.455803,4 11.999231,4.5442491 8.5434281,8.0003844 12,11.45652 11.455803,12 8,8.5438647 4.5434281,12 4,11.45652 7.4565719,8.0003844 4,4.5442491 4.5434281,4 Z"
     fill="#ffffff"
     id="path1"
     style="stroke-width:0.768677;fill:#444444;fill-opacity:1" />
</svg>

<svg width="16" height="16" version="1.1" viewBox="0 0 16 16" xmlns="http://www.w3.org/2000/svg">
 <path d="m16 8c0.06551 3.5421-2.5426 6.9068-5.9811 7.7488-3.0966 0.8279-6.623-0.40534-8.4847-3.0262-1.9282-2.6035-2.0593-6.392-0.24384-9.0895 1.6534-2.5632 4.8371-4.0352 7.8604-3.5572 3.1136 0.43476 5.8491 2.8496 6.5946 5.9148 0.1675 0.64794 0.25373 1.3169 0.25463 1.9862" fill="#ff98a2" fill-rule="evenodd"/>
 <path d="m8 7.4569c1.1519-1.1523 2.3039-2.3046 3.4558-3.4569 0.18114 0.18142 0.36229 0.36283 0.54343 0.54425-1.1519 1.152-2.3039 2.3041-3.4558 3.4561 1.1522 1.152 2.3044 2.3041 3.4566 3.4561l-0.5442 0.54348c-1.1519-1.152-2.3039-2.3041-3.4558-3.4561-1.1522 1.152-2.3044 2.3041-3.4566 3.4561-0.18114-0.18116-0.36229-0.36232-0.54343-0.54348 1.1522-1.152 2.3044-2.3041 3.4566-3.4561-1.1522-1.152-2.3044-2.3041-3.4566-3.4561 0.18114-0.18142 0.36229-0.36283 0.54343-0.54425 1.1522 1.1523 2.3044 2.3046 3.4566 3.4569z" fill="#444"/>
</svg>
